RestoDelMundo/Suiza/Otras Categorias/Fc Wil.svg

<svg xmlns="http://www.w3.org/2000/svg" viewBox="0 0 612 792"><path d="M163.825 195.823c-14.16 14.285-26.061 29.948-35.582 46.614 5.887-7.772 12.404-15.163 19.544-22.308 85.957-85.954 226.164-85.954 312.118 0 71.792 71.8 83.698 181.428 35.58 265.631 65.91-86.455 59.391-211.003-19.544-289.938-85.955-85.951-226.162-85.951-312.116.001"/><path fill="#0075bf" d="M464.663 411.71c-.874-7.768-3.253-15.411-7.015-22.43 1.256 3.762 2.001 7.522 2.507 11.535 5.259 47.483-46.49 89.207-115.275 92.967-57.262 3.007-108.883-21.43-127.553-57.137 13.034 41.601 69.04 84.078 132.066 80.688 68.785-3.63 120.533-58.008 115.27-105.623"/><path d="M506.139 353.572c-3.507-18.168-9.399-35.457-17.292-51.371 2.884 8.648 5.263 17.417 7.015 26.561 21.423 110.391-51.12 217.894-161.632 239.318-91.969 17.792-182.056-29.821-221.776-110.259 32.072 95.224 130.938 154.742 232.176 135.071 110.389-21.424 182.931-128.931 161.509-239.32"/><path d="M293.386 114.254c22.173 0 43.601 3.007 64.145 8.523-10.65-1.383-21.673-2.131-32.568-2.131-134.576 0-244.336 109.761-244.336 244.204 0 112.39 76.435 207.364 179.927 235.681C141.394 584.497 49.05 481.876 49.05 358.463c0-134.573 109.761-244.209 244.336-244.209"/><path d="M306.538 233.414c-7.265-10.4-19.17-17.292-32.325-17.292-24.435 0-44.105 18.422-44.105 45.107 0 23.309 19.045 43.1 42.602 43.1 16.036 0 28.692-6.512 36.33-22.173l-5.509-2.757c-4.763 11.027-15.411 18.292-27.689 18.292-19.296 0-28.82-18.292-28.82-37.085 0-24.187 10.397-39.095 30.696-39.095 11.153 0 18.045 7.393 24.184 15.161zM194.4 301.949v-40.471h29.443v-5.389H194.4v-32.2h32.325v-5.516h-47.988v83.575zM351.144 269.877v10.77h-4.886zm0-23.809v2.126c-4.135.253-5.386 5.014-5.386 9.026 0 3.007 1.124 7.39 4.886 7.39h.5v1.881c-.75.12-1.506.253-2.502.253-5.263 0-8.275-4.135-8.275-8.771 0-6.269 4.886-11.282 10.777-11.905m-21.049 2.629v31.95h5.391v-34.579l-9.526.755v2.127zm21.049 31.95v-10.77l1.633-3.888c-.505.125-1.133.373-1.633.503v-1.881c3.885-.376 5.264-5.139 5.264-9.144 0-3.007-1.128-7.272-4.891-7.272h-.373v-2.126h1.128c5.391 0 9.521 4.013 9.521 9.902 0 2.504-.372 4.133-1.628 6.887l-8.271 17.79h-.75zm27.692-34.579v2.126c-4.886.383-7.52 7.775-7.52 16.171 0 4.881 1.633 14.783 7.02 14.783h.5v2.127h-1.001c-8.143 0-12.656-7.14-12.656-15.406 0-9.026 4.135-19.178 13.657-19.801m0 35.207v-2.127c4.763-.377 7.393-7.768 7.393-16.166 0-4.886-1.756-14.788-7.143-14.788h-.25v-2.126h.873c8.02 0 12.656 7.14 12.656 15.411 0 9.025-4.13 19.168-13.529 19.796m29.57-35.207v2.126c-4.886.383-7.52 7.775-7.52 16.171 0 4.881 1.756 14.783 7.015 14.783h.505v2.127h-1.001c-8.148 0-12.656-7.14-12.656-15.406 0-9.026 4.136-19.178 13.657-19.801m0 35.207v-2.127c4.758-.377 7.397-7.768 7.397-16.166 0-4.886-1.761-14.788-7.02-14.788h-.378v-2.126h.874c8.021 0 12.661 7.14 12.661 15.411 0 9.025-4.135 19.168-13.534 19.796M420.935 455.192l4.763-13.033h-66.533l56.261-152.991h-31.204l-61.015 166.024zM310.423 455.192l61.02-166.024h-31.199l-61.022 166.024z"/><path d="M230.731 289.168h-32.828l24.815 67.914-16.669 42.475-41.469-110.389h-31.702l63.522 170.66h.505L230.485 376l31.445 83.828h.503l67.284-170.66h-14.785L272.71 398.809z"/></svg>

<svg enable-background="new 0 0 612 792" viewBox="0 0 612 792" xmlns="http://www.w3.org/2000/svg"><path d="M 163.825 195.823 c -14.16 14.285 -26.061 29.948 -35.582 46.614 c 5.887 -7.772 12.404 -15.163 19.544 -22.308 c 85.957 -85.954 226.164 -85.954 312.118 0 c 71.792 71.8 83.698 181.428 35.58 265.631 c 65.91 -86.455 59.391 -211.003 -19.544 -289.938 C 389.986 109.871 249.779 109.871 163.825 195.823"/><path d="M 464.663 411.71 c -.874 -7.768 -3.253 -15.411 -7.015 -22.43 c 1.256 3.762 2.001 7.522 2.507 11.535 c 5.259 47.483 -46.49 89.207 -115.275 92.967 c -57.262 3.007 -108.883 -21.43 -127.553 -57.137 c 13.034 41.601 69.04 84.078 132.066 80.688 C 418.178 513.703 469.926 459.325 464.663 411.71" fill="#0075bf"/><path d="M 506.139 353.572 c -3.507 -18.168 -9.399 -35.457 -17.292 -51.371 c 2.884 8.648 5.263 17.417 7.015 26.561 c 21.423 110.391 -51.12 217.894 -161.632 239.318 c -91.969 17.792 -182.056 -29.821 -221.776 -110.259 c 32.072 95.224 130.938 154.742 232.176 135.071 C 455.019 571.468 527.561 463.961 506.139 353.572"/><path d="M 293.386 114.254 c 22.173 0 43.601 3.007 64.145 8.523 c -10.65 -1.383 -21.673 -2.131 -32.568 -2.131 c -134.576 0 -244.336 109.761 -244.336 244.204 c 0 112.39 76.435 207.364 179.927 235.681 C 141.394 584.497 49.05 481.876 49.05 358.463 C 49.05 223.89 158.811 114.254 293.386 114.254"/><path d="M 306.538 233.414 c -7.265 -10.4 -19.17 -17.292 -32.325 -17.292 c -24.435 0 -44.105 18.422 -44.105 45.107 c 0 23.309 19.045 43.1 42.602 43.1 c 16.036 0 28.692 -6.512 36.33 -22.173 l -5.509 -2.757 c -4.763 11.027 -15.411 18.292 -27.689 18.292 c -19.296 0 -28.82 -18.292 -28.82 -37.085 c 0 -24.187 10.397 -39.095 30.696 -39.095 c 11.153 0 18.045 7.393 24.184 15.161 L 306.538 233.414 M 194.4 301.949 v -40.471 h 29.443 v -5.389 H 194.4 v -32.2 h 32.325 v -5.516 h -47.988 v 83.575 H 194.4 z"/><path d="M 351.144 269.877 v 10.77 h -4.886 L 351.144 269.877 M 351.144 246.068 v 2.126 c -4.135 .253 -5.386 5.014 -5.386 9.026 c 0 3.007 1.124 7.39 4.886 7.39 c .128 0 .25 0 .5 0 v 1.881 c -.75 .12 -1.506 .253 -2.502 .253 c -5.263 0 -8.275 -4.135 -8.275 -8.771 C 340.367 251.704 345.253 246.691 351.144 246.068 z M 330.095 248.697 v 31.95 h 5.391 v -34.579 l -9.526 .755 v 2.127 L 330.095 248.697 z M 351.144 280.647 v -10.77 l 1.633 -3.888 c -.505 .125 -1.133 .373 -1.633 .503 v -1.881 c 3.885 -.376 5.264 -5.139 5.264 -9.144 c 0 -3.007 -1.128 -7.272 -4.891 -7.272 c -.118 0 -.246 0 -.373 0 v -2.126 c .373 0 .751 0 1.128 0 c 5.391 0 9.521 4.013 9.521 9.902 c 0 2.504 -.372 4.133 -1.628 6.887 l -8.271 17.79 H 351.144 z M 378.836 246.068 v 2.126 c -4.886 .383 -7.52 7.775 -7.52 16.171 c 0 4.881 1.633 14.783 7.02 14.783 c .123 0 .25 0 .5 0 v 2.127 c -.378 0 -.628 0 -1.001 0 c -8.143 0 -12.656 -7.14 -12.656 -15.406 C 365.179 256.843 369.314 246.691 378.836 246.068 z M 378.836 281.275 v -2.127 c 4.763 -.377 7.393 -7.768 7.393 -16.166 c 0 -4.886 -1.756 -14.788 -7.143 -14.788 c -.122 0 -.25 0 -.25 0 v -2.126 c .25 0 .505 0 .873 0 c 8.02 0 12.656 7.14 12.656 15.411 C 392.365 270.504 388.235 280.647 378.836 281.275 z M 408.406 246.068 v 2.126 c -4.886 .383 -7.52 7.775 -7.52 16.171 c 0 4.881 1.756 14.783 7.015 14.783 c .127 0 .377 0 .505 0 v 2.127 c -.378 0 -.628 0 -1.001 0 c -8.148 0 -12.656 -7.14 -12.656 -15.406 C 394.749 256.843 398.885 246.691 408.406 246.068 z M 408.406 281.275 v -2.127 c 4.758 -.377 7.397 -7.768 7.397 -16.166 c 0 -4.886 -1.761 -14.788 -7.02 -14.788 c -.128 0 -.255 0 -.378 0 v -2.126 c .25 0 .5 0 .874 0 c 8.021 0 12.661 7.14 12.661 15.411 C 421.94 270.504 417.805 280.647 408.406 281.275 z"/><path d="M 420.935 455.192 L 425.698 442.159 L 359.165 442.159 L 415.426 289.168 L 384.222 289.168 L 323.207 455.192 L 420.935 455.192"/><path d="M 310.423 455.192 L 371.443 289.168 L 340.244 289.168 L 279.222 455.192 L 310.423 455.192"/><path d="M 230.731 289.168 L 197.903 289.168 L 222.718 357.082 L 206.049 399.557 L 164.58 289.168 L 132.878 289.168 L 196.4 459.828 L 196.905 459.828 L 230.485 376 L 261.93 459.828 L 262.433 459.828 L 329.717 289.168 L 314.932 289.168 L 272.71 398.809 L 230.731 289.168"/></svg>
